public/build/img/sistema/panelproveedores-bl.svg

<svg width="40" height="46" viewBox="0 0 40 46" fill="none" xmlns="http://www.w3.org/2000/svg">
<path d="M20.8 0.0625C27.365 0.0625 32.6857 5.17857 32.6857 11.4911C32.6857 17.8036 27.365 22.9196 20.8 22.9196C14.235 22.9196 8.91429 17.8036 8.91429 11.4911C8.91429 5.17857 14.235 0.0625 20.8 0.0625ZM19.4164 32.1339L17.6893 29.3661C17.095 28.4107 17.81 27.2054 18.9614 27.2054H20.8H22.6293C23.7807 27.2054 24.4957 28.4196 23.9014 29.3661L22.1743 32.1339L25.2757 43.1964L28.9436 28.8036C36.1121 29.875 41.6 35.8393 41.6 43.0357C41.6 44.5536 40.3186 45.7768 38.7493 45.7768H24.6164H16.9836H2.85071C1.28143 45.7768 0 44.5446 0 43.0357C0 35.8393 5.48786 29.875 12.6564 28.8036L16.3243 43.1964L19.4257 32.1339H19.4164Z" fill="white"/>
</svg>

<svg width="40" height="46" fill="none" xmlns="http://www.w3.org/2000/svg"><path d="M20.8.063c6.565 0 11.886 5.116 11.886 11.428 0 6.313-5.321 11.429-11.886 11.429-6.565 0-11.886-5.116-11.886-11.429C8.914 5.18 14.235.063 20.8.063zm-1.384 32.07l-1.727-2.767c-.594-.955.121-2.16 1.272-2.16h3.669c1.15 0 1.866 1.214 1.271 2.16l-1.727 2.768 3.102 11.062 3.668-14.392C36.112 29.875 41.6 35.839 41.6 43.036c0 1.518-1.281 2.74-2.85 2.74H2.85C1.28 45.777 0 44.546 0 43.037c0-7.197 5.488-13.161 12.656-14.232l3.668 14.392 3.102-11.062h-.01z" fill="#fff"/></svg>
